!!!ONB: MCCC : ICD0085_04 : Extracted Monophonic Melody
!!!COM: Debussy, Claude
!!!OPR: Suite Bergamasque
!!!OMV: 4
!!!SCT: CD 82 ; L.75
!!!ODT: 1890///
**kern
*staff1
*clefG2
*k[f#c#g#]
*A:
*M4/4
=3
4f#
4cc#
2b[
=4
4b]
8a
8g#
4f#
8e
8d
=5
4c#
8d
8e
4f#
4a
=6
1g#[
=7
8g#]
8f#
8g#
8a
2b[
=8
4b]
4r
2dd[
=9
4dd]
4r
2ff#[
=10
2ff#]
2f#[
=11
4f#]
4cc#
2b[
=12
4b]
8a
8g#
4f#
8e
8d
=13
8r
8c#
8d
8e
4f#
4a
=14
1g#[
=15
2g#]
4a
4gg#
=16
2g#
4f#
4ee
=17
4e
4r
4d#
4cc#
=18
1c#[
=19
2c#]
4d
4a
=20
4.g#
8a
4b
4b[
=21
4b]
4cc#
4d
4a
=22
4.g#
8a
4b
4b[
=23
4b]
4g#
4a
4b
=24
6cc#
6cc#
6ee
6cc#
6b
6cc#
=25
4a
4cc#
2b
=26
4b
4cc#
2a
=27
1a[
=28
4a]
4r
2r
=29
1r
=30
4ff#
4ccc#
2bb
=31
4ff#
8a
8g#
4f#
8e
8d
=32
4c#
8d
8e
4f#
4a
=33
1g#
=34
4g#
8g#
8a
2b
=35
8b
8a
8b
8a
2g#[
=36
8g#]
8f#
8e
8d
2c#
=37
8c#
8c#[
2.c#]
=38
8c#
8B
4r
8cc#
8b
4r
=39
4ff#
4ccc#
2bb#
=40
4ccc#
4eee
6ddd#
6bb
6aa
=41
4ff#
4ccc#
2bb#
=42
4ccc#
4eee
6ddd#
6bb
6ddd#
=43
4cc#
4ee
6dd#
6b
6dd#
=44
2cc#
4b
4g#
=45
6e
6f#
6g#
4f#[
4f#]
=46
4g#
4g#[
4g#]
8g#
8b
=47
4cc#
4ee
6dd#
6b
6dd#
=48
2cc#
4b
4g#
=49
6e
6f#
6g#
2a#[
=50
4a#]
4b
4dd#
4ff#
=51
1gg#[
=52
2gg#]
6bb
6ddd#
6bb
=53
1gg#[
=54
4gg#]
4ccc#
4aa#
4gg#
=55
1ff#[
=56
2ff#]
6aa
6ccc#
6aa
=57
1ff#[
=58
4ff#]
4bb
4gg#
4ff#
=59
4ee
8cc#
8cc#
4cc#
4ee
=60
4ff#
8ff#
8gg#
8ff#
8gg#
4ff#
=61
4ee
8cc#
8cc#
4cc#
4a
=62
1cc#
=63
4b
8g
8g
4g
4b
=64
4a
8a
8b
8a
8b
4cc
=65
4b
8g
8g
4g
4b
=66
2b
2e
=67
4ee
8cc#
8cc#
4cc#
4ee
=68
4ff#
8ff#
8gg#
8ff#
8gg#
4ff#
=69
4ee
8cc#
8cc#
4cc#
4a
=70
1cc#[
=71
4cc#]
8a
8a
4f#
4a
=72
4cc#
8a
8a
4f#
4a
=73
4cc#
2a
4cc#
=74
8dd#
8d#
4r
4r
8d#
8G#
=75
4r
8dd#
8g#
4r
8ddd#
8gg#
=76
4ddd#
4ccc
4ddd#
4ggg
=77
2ddd#
4ccc
4ddd#
=78
6ccc
6aa#
6ccc
4gg#
4ccc
=79
2aa#
4a#
4b#
=80
2cc#
4cc
4ee#
=81
2a#
4g#
4ee#
=82
2g
4e#
4ee#
=83
2d#
8d#
8d#
8d#
8d#[
=84
4d#]
4c
4d#
4g
=85
2d#
4c
4d#
=86
6c
6A#
6c
4G#
4c
=87
1r
=88
4b
8g#
8g#
4g#
4b
=89
4cc#
8cc#
8dd#
8cc#
8dd#
4cc#
=90
4b
8g#
8g#
4g#
4b
=91
2a#
4a#
8a#[
8a#]
=92
4bb
8gg#
8gg#
4gg#
4bb
=93
4ccc#
8ccc#
8ddd#
8ccc#
8ddd#
4ccc#
=94
4bb
8gg#
8gg#
4gg#
4bb
=95
8aa#
8dd
4r
8aa#
8dd
4r
=96
8aa#
8dd
4r
8aa#
8dd
4r
=97
8aa#
8dd
4r
8bb
8dd#
4r
=98
8ccc#
8ee#
4r
8bb
8dd#
4r
=99
8aa#
8dd
4r
8bb
8dd#
4r
=100
8ccc#
8ee#
4r
8bb
8dd#
4r
=101
8aa#
8dd
4r
8bb
8dd#
4r
=102
8ccc#
8ee#
4r
8ccc#
8ee#
4r
=103
8ccc#
8ee#
4r
8ccc#
8ee#
4r
=104
8ccc#
8ee#
4r
8ccc#
8ee#
4r
=105
8ccc#
8ee#
4r
8ccc#
8ee#
4r
=106
8ccc#
8aa
8ff#
8cc#
8ccc#
8aa
8ff#
8cc#
=107
8ccc#
8aa
8ff#
8cc#
8ccc#
8aa
8ff#
8cc#
=108
8ccc#
8aa
8ff#
8cc#
8ccc#
8aa
8ff#
8dd
=109
8ccc#
8bb
8ff#
8cc#
8ccc#
8bb
8ee#
8cc#
=110
8r
8f#
8g#
8a
2b[
=111
4b]
4r
2dd[
=112
4dd]
4r
2ff#[
=113
2ff#]
2f#[
=114
4f#]
4cc#
2b[
=115
4b]
8a
8g#
4f#
8e
8d
=116
4c#
8d
8e
4f#
4a
=117
1g#[
=118
2g#]
4a
4gg#
=119
4g#
4r
4f#
4ee
=120
4e
4r
4d#
4cc#
=121
1c#[
=122
2c#]
4B
4b
=123
1c#[
=124
2c#]
4B
4b
=125
1r
=126
1r
=127
1r
=128
2r
4r
8d
8f#
=129
6a
6f#
6f#
4f#
4a
=130
6b
6b
6b
6b
6cc#
6b
=131
6a
6f#
6f#
4f#
4a
=132
1g#
=133
2r
8f#
8g#
8b
8dd
=134
8ff#
8dd
4b
8r
8b
8dd
8ee
=135
8ff#
8dd
4b
8r
8b
8dd
8ee
=136
8ff#
8dd
4b
8r
8b
8dd
8ee
=137
8ff#
8dd
4b
8r
8b
8dd
8ee
=138
4ff#
4ccc#
2bb#
=139
4ccc#
4eee
6ddd#
6bb
6aa
=140
4ff#
4ccc#
2bb#
=141
4ccc#
4eee
6ddd#
6bb
6aa
=142
4cc#
4ee
6dd#
6b
6a
=143
2cc#
8cc#
8cc#
8cc#[
8cc#]
=144
4cc#
4r
8r
8ddd#
8fff#
8aaa
=145
2cccc#
8cccc#
8cccc#
8cccc#[
8cccc#]
=146
2r
8eee#
8ggg#
8bbb
8cccc#
=147
8ffff#
8fff#
8ffff#
8fff#
8cccc#
8ccc#
8cccc#
8ccc#
=148
8dddd#
8ddd#
8dddd#
8ddd#
8bbb
8bb
8bbb
8bb
=149
8fff#
8ff#
8fff#
8ff#
8ccc#
8cc#
8ccc#
8cc#
=150
8ddd#
8dd#
8ddd#
8dd#
8bb
8b
8bb
8b
=151
8ff#
8f#
8ff#
8f#
8cc#
8c#
8cc#
8c#
=152
1dd#
=153
8r
8dd#
8ff#
8bb
8ddd#
8fff#
8bbb
8dddd#
=154
4ffff#
4r
2r
=155
4ff#
4r
2r
=156
4fff#
4r
2r
==
*-
